X:7
T:Big Phat Ragg
C: Sarah Gowan
N:For the Big Phat American K-Lee Band - August 2005
M:4/4
K:G
"G"G2d2"F#"^c2d2|"G"G2d2"F#"^c2d2|"C7"e2_Be2Be2|"G"d6BA|
"G"G2d2"F#"^c2d2|"G"G2d2"F#"^c2d2|"C7"e3e2^de2|"D7"f6ef|
"G"g2>e2d2B2|"Bm"d2B2 A2<G2|"Am"A2GA2GA2|"C#dim"_B6BA|
"G"G2g2"F#"f2"F"=f2|"E7"e4B4|"A7"A2Ad2"D7"BA2|"G"G6GF||
"Em"E2B2"D"G2F2|"Em"E2B2"D"G2F2|"Em"E3E3B,2|"Em"E6_E2|
"D"D2A2"A7"F2E2|"D"D2A2"A7"F2E2|"D"D2D2E2=F2|"D7"F6GF|
"Em"E2B2"D"G2F2|"Em"E2B2"D"G2F2|"Em"E3E3B,2|"Em"E6F2|
"G"G2d2"F#"^c2"F"d2|"E7"e4B4|"A7"A2A"D7"d2BA2|"G"G6z2|]
